packages/foundations/assets/icons/functional/images/transportation/bike_trailer_inverted.svg

<svg xmlns="http://www.w3.org/2000/svg" width="32" height="32" fill="none"><path fill="#1A1C1F" fill-rule="evenodd" d="M6.635 7.904c-1.081.109-2.032.852-2.421 1.893-.06.161-.461 1.845-.89 3.741l-.781 3.449.004 1.733c.006 1.994.037 2.185.457 2.755.422.573.834.796 1.847 1.001.365.073.671.127.68.118.008-.009.026-.266.04-.572.042-.983.392-1.864 1.009-2.537 1.623-1.773 4.288-1.776 5.925-.008.389.42.769 1.118.909 1.67.11.437.151 1.104.091 1.511-.034.238-.031.344.01.356.032.01 1.354.045 2.938.077 3.17.066 3.192.064 3.782-.253.372-.199.976-.807 1.304-1.311.305-.468.363-.641.76-2.247.256-1.039.272-1.137.212-1.359-.115-.429-1.146-1.635-2.852-3.336-2.068-2.062-3.125-2.91-4.852-3.895-1.062-.605-2.185-1.067-5.064-2.08-1.947-.685-2.367-.781-3.108-.706m3.392 2.892c3.397 1.198 4.127 1.593 6.074 3.282.871.756.966.885.966 1.309 0 .692-.713 1.18-1.341.918-.105-.044-.524-.365-.932-.714-1.369-1.172-1.986-1.579-3.114-2.057-.714-.302-3.834-1.397-3.872-1.359-.016.015-.148.552-.293 1.193-.289 1.272-.381 1.483-.713 1.641-.429.204-.788.157-1.135-.147a.92.92 0 0 1-.334-.693c0-.223.668-3.195.755-3.358a1.63 1.63 0 0 1 .883-.764c.411-.153.699-.083 3.056.749m17.626 8.732c-.492.091-.794.21-1.905.75l-1.105.538-.582.035c-.521.03-.602.049-.77.177-.559.426-.529 1.239.06 1.643.163.113.26.131.752.147.821.025 1.114-.06 2.457-.714 1.046-.509 1.187-.563 1.6-.616.6-.076.886-.19 1.081-.431.266-.329.268-.904.004-1.218-.298-.353-.815-.455-1.592-.311m-18.64.679c-.53.174-1.084.645-1.28 1.088a2.1 2.1 0 0 0 .029 1.727c.373.763 1.303 1.249 2.086 1.092.905-.182 1.51-.789 1.675-1.68.148-.801-.313-1.676-1.095-2.076-.277-.141-.388-.166-.801-.179-.264-.009-.54.004-.614.028"/></svg>

<svg width="32" height="32" viewBox="0 0 32 32" fill="none" xmlns="http://www.w3.org/2000/svg"><path d="M6.635 7.904 C 5.554 8.013,4.603 8.756,4.214 9.797 C 4.154 9.958,3.753 11.642,3.324 13.538 L 2.543 16.987 2.547 18.720 C 2.553 20.714,2.584 20.905,3.004 21.475 C 3.426 22.048,3.838 22.271,4.851 22.476 C 5.216 22.549,5.522 22.603,5.531 22.594 C 5.539 22.585,5.557 22.328,5.571 22.022 C 5.613 21.039,5.963 20.158,6.580 19.485 C 8.203 17.712,10.868 17.709,12.505 19.477 C 12.894 19.897,13.274 20.595,13.414 21.147 C 13.524 21.584,13.565 22.251,13.505 22.658 C 13.471 22.896,13.474 23.002,13.515 23.014 C 13.547 23.024,14.869 23.059,16.453 23.091 C 19.623 23.157,19.645 23.155,20.235 22.838 C 20.607 22.639,21.211 22.031,21.539 21.527 C 21.844 21.059,21.902 20.886,22.299 19.280 C 22.555 18.241,22.571 18.143,22.511 17.921 C 22.396 17.492,21.365 16.286,19.659 14.585 C 17.591 12.523,16.534 11.675,14.807 10.690 C 13.745 10.085,12.622 9.623,9.743 8.610 C 7.796 7.925,7.376 7.829,6.635 7.904 M10.027 10.796 C 13.424 11.994,14.154 12.389,16.101 14.078 C 16.972 14.834,17.067 14.963,17.067 15.387 C 17.067 16.079,16.354 16.567,15.726 16.305 C 15.621 16.261,15.202 15.940,14.794 15.591 C 13.425 14.419,12.808 14.012,11.680 13.534 C 10.966 13.232,7.846 12.137,7.808 12.175 C 7.792 12.190,7.660 12.727,7.515 13.368 C 7.226 14.640,7.134 14.851,6.802 15.009 C 6.373 15.213,6.014 15.166,5.667 14.862 C 5.450 14.671,5.333 14.430,5.333 14.169 C 5.333 13.946,6.001 10.974,6.088 10.811 C 6.277 10.457,6.583 10.192,6.971 10.047 C 7.382 9.894,7.670 9.964,10.027 10.796 M27.653 19.528 C 27.161 19.619,26.859 19.738,25.748 20.278 L 24.643 20.816 24.061 20.851 C 23.540 20.881,23.459 20.900,23.291 21.028 C 22.732 21.454,22.762 22.267,23.351 22.671 C 23.514 22.784,23.611 22.802,24.103 22.818 C 24.924 22.843,25.217 22.758,26.560 22.104 C 27.606 21.595,27.747 21.541,28.160 21.488 C 28.760 21.412,29.046 21.298,29.241 21.057 C 29.507 20.728,29.509 20.153,29.245 19.839 C 28.947 19.486,28.430 19.384,27.653 19.528 M9.013 20.207 C 8.483 20.381,7.929 20.852,7.733 21.295 C 7.493 21.838,7.504 22.494,7.762 23.022 C 8.135 23.785,9.065 24.271,9.848 24.114 C 10.753 23.932,11.358 23.325,11.523 22.434 C 11.671 21.633,11.210 20.758,10.428 20.358 C 10.151 20.217,10.040 20.192,9.627 20.179 C 9.363 20.170,9.087 20.183,9.013 20.207 " fill="#1A1C1F" stroke="none" fill-rule="evenodd"></path></svg>
